p0e4/evidence/r1_framed_study_v164_execution/R1_BASELINE.cube
TITLE "UNCHAINED R1_BASELINE"
LUT_3D_SIZE 5
DOMAIN_MIN 0 0 0
DOMAIN_MAX 1 1 1
0.000000000 0.000000000 0.000000000
0.249078375 0.000328375 0.000328375
0.498156750 0.000656750 0.000656750
0.747235125 0.000985125 0.000985125
0.996313500 0.001313500 0.001313500
0.000847500 0.249597500 0.000847500
0.249925875 0.249925875 0.001175875
0.499004250 0.250254250 0.001504250
0.748082625 0.250582625 0.001832625
0.997161000 0.250911000 0.002161000
0.001695000 0.499195000 0.001695000
0.250773375 0.499523375 0.002023375
0.499851750 0.499851750 0.002351750
0.748930125 0.500180125 0.002680125
0.998008500 0.500508500 0.003008500
0.002542500 0.748792500 0.002542500
0.251620875 0.749120875 0.002870875
0.500699250 0.749449250 0.003199250
0.749777625 0.749777625 0.003527625
0.998856000 0.750106000 0.003856000
0.003390000 0.998390000 0.003390000
0.252468375 0.998718375 0.003718375
0.501546750 0.999046750 0.004046750
0.750625125 0.999375125 0.004375125
0.999703500 0.999703500 0.004703500
0.000074125 0.000074125 0.248824125
0.249152500 0.000402500 0.249152500
0.498230875 0.000730875 0.249480875
0.747309250 0.001059250 0.249809250
0.996387625 0.001387625 0.250137625
0.000921625 0.249671625 0.249671625
0.250000000 0.250000000 0.250000000
0.505497493 0.248041243 0.248041243
0.760994986 0.246082486 0.246082486
0.997235125 0.250985125 0.250985125
0.001769125 0.499269125 0.250519125
0.244944662 0.502400912 0.244944662
0.500442156 0.500442156 0.242985906
0.755939649 0.498483399 0.241027149
0.998082625 0.500582625 0.251832625
0.002616625 0.748866625 0.251366625
0.239889325 0.754801825 0.239889325
0.495386818 0.752843068 0.237930568
0.750884311 0.750884311 0.235971811
0.998930125 0.750180125 0.252680125
0.003464125 0.998464125 0.252214125
0.252542500 0.998792500 0.252542500
0.501620875 0.999120875 0.252870875
0.750699250 0.999449250 0.253199250
0.999777625 0.999777625 0.253527625
0.000148250 0.000148250 0.497648250
0.249226625 0.000476625 0.497976625
0.498305000 0.000805000 0.498305000
0.747383375 0.001133375 0.498633375
0.996461750 0.001461750 0.498961750
0.000995750 0.249745750 0.498495750
0.249557844 0.249557844 0.507014094
0.505055337 0.247599087 0.505055337
0.760552831 0.245640331 0.503096581
0.997309250 0.251059250 0.499809250
0.001843250 0.499343250 0.499343250
0.244502507 0.501958757 0.501958757
0.500000000 0.500000000 0.500000000
0.755497493 0.498041243 0.498041243
0.998156750 0.500656750 0.500656750
0.002690750 0.748940750 0.500190750
0.239447169 0.754359669 0.496903419
0.494944663 0.752400912 0.494944663
0.750442156 0.750442156 0.492985906
0.999004250 0.750254250 0.501504250
0.003538250 0.998538250 0.501038250
0.252616625 0.998866625 0.501366625
0.501695000 0.999195000 0.501695000
0.750773375 0.999523375 0.502023375
0.999851750 0.999851750 0.502351750
0.000222375 0.000222375 0.746472375
0.249300750 0.000550750 0.746800750
0.498379125 0.000879125 0.747129125
0.747457500 0.001207500 0.747457500
0.996535875 0.001535875 0.747785875
0.001069875 0.249819875 0.747319875
0.249115689 0.249115689 0.764028189
0.504613182 0.247156932 0.762069432
0.760110675 0.245198175 0.760110675
0.997383375 0.251133375 0.748633375
0.001917375 0.499417375 0.748167375
0.244060351 0.501516601 0.758972851
0.499557844 0.499557844 0.757014094
0.755055337 0.497599087 0.755055337
0.998230875 0.500730875 0.749480875
0.002764875 0.749014875 0.749014875
0.239005014 0.753917514 0.753917514
0.494502507 0.751958757 0.751958757
0.750000000 0.750000000 0.750000000
0.999078375 0.750328375 0.750328375
0.003612375 0.998612375 0.749862375
0.252690750 0.998940750 0.750190750
0.501769125 0.999269125 0.750519125
0.750847500 0.999597500 0.750847500
0.999925875 0.999925875 0.751175875
0.000296500 0.000296500 0.995296500
0.249374875 0.000624875 0.995624875
0.498453250 0.000953250 0.995953250
0.747531625 0.001281625 0.996281625
0.996610000 0.001610000 0.996610000
0.001144000 0.249894000 0.996144000
0.250222375 0.250222375 0.996472375
0.499300750 0.250550750 0.996800750
0.748379125 0.250879125 0.997129125
0.997457500 0.251207500 0.997457500
0.001991500 0.499491500 0.996991500
0.251069875 0.499819875 0.997319875
0.500148250 0.500148250 0.997648250
0.749226625 0.500476625 0.997976625
0.998305000 0.500805000 0.998305000
0.002839000 0.749089000 0.997839000
0.251917375 0.749417375 0.998167375
0.500995750 0.749745750 0.998495750
0.750074125 0.750074125 0.998824125
0.999152500 0.750402500 0.999152500
0.003686500 0.998686500 0.998686500
0.252764875 0.999014875 0.999014875
0.501843250 0.999343250 0.999343250
0.750921625 0.999671625 0.999671625
1.000000000 1.000000000 1.000000000
