p0e4/evidence/r1_framed_study_v164_execution/R1_CALMER_BACKGROUND_RICHER_SUBJECT.cube
TITLE "UNCHAINED R1_CALMER_BACKGROUND_RICHER_SUBJECT"
LUT_3D_SIZE 33
DOMAIN_MIN 0 0 0
DOMAIN_MAX 1 1 1
0.000000000 0.000000000 0.000000000
0.030217780 0.000367780 0.000367780
0.060976384 0.000542865 0.000542865
0.093404391 0.000123141 0.000123141
0.124539188 0.000164188 0.000164188
0.155673984 0.000205234 0.000205234
0.186808781 0.000246281 0.000246281
0.217943578 0.000287328 0.000287328
0.249078375 0.000328375 0.000328375
0.280213172 0.000369422 0.000369422
0.311347969 0.000410469 0.000410469
0.342482766 0.000451516 0.000451516
0.373617563 0.000492563 0.000492563
0.404752359 0.000533609 0.000533609
0.435887156 0.000574656 0.000574656
0.467021953 0.000615703 0.000615703
0.498156750 0.000656750 0.000656750
0.529291547 0.000697797 0.000697797
0.560426344 0.000738844 0.000738844
0.591561141 0.000779891 0.000779891
0.622695938 0.000820938 0.000820938
0.653830734 0.000861984 0.000861984
0.684965531 0.000903031 0.000903031
0.716100328 0.000944078 0.000944078
0.747235125 0.000985125 0.000985125
0.778369922 0.001026172 0.001026172
0.809504719 0.001067219 0.001067219
0.840639516 0.001108266 0.001108266
0.871774313 0.001149312 0.001149312
0.902909109 0.001190359 0.001190359
0.934043906 0.001231406 0.001231406
0.965178703 0.001272453 0.001272453
0.996313500 0.001313500 0.001313500
0.000949200 0.030799200 0.000949200
0.031166980 0.031166980 0.001316980
0.061700294 0.031454193 0.001208093
0.093510328 0.031322828 0.000229078
0.124645125 0.031363875 0.000270125
0.155779922 0.031404922 0.000311172
0.186914719 0.031445969 0.000352219
0.218049516 0.031487016 0.000393266
0.249184313 0.031528063 0.000434313
0.280319109 0.031569109 0.000475359
0.311453906 0.031610156 0.000516406
0.342588703 0.031651203 0.000557453
0.373723500 0.031692250 0.000598500
0.404858297 0.031733297 0.000639547
0.435993094 0.031774344 0.000680594
0.467127891 0.031815391 0.000721641
0.498262688 0.031856438 0.000762687
0.529397484 0.031897484 0.000803734
0.560532281 0.031938531 0.000844781
0.591667078 0.031979578 0.000885828
0.622801875 0.032020625 0.000926875
0.653936672 0.032061672 0.000967922
0.685071469 0.032102719 0.001008969
0.716206266 0.032143766 0.001050016
0.747341062 0.032184812 0.001091062
0.778475859 0.032225859 0.001132109
0.809610656 0.032266906 0.001173156
0.840745453 0.032307953 0.001214203
0.871880250 0.032349000 0.001255250
0.903015047 0.032390047 0.001296297
0.934149844 0.032431094 0.001337344
0.965284641 0.032472141 0.001378391
0.996419437 0.032513187 0.001419438
0.001898400 0.061598400 0.001898400
0.032116180 0.061966180 0.002266180
0.062372077 0.062372077 0.002029297
0.093616266 0.062522516 0.000335016
0.124751063 0.062563563 0.000376062
0.155885859 0.062604609 0.000417109
0.187020656 0.062645656 0.000458156
0.218155453 0.062686703 0.000499203
0.249290250 0.062727750 0.000540250
0.280425047 0.062768797 0.000581297
0.311559844 0.062809844 0.000622344
0.342694641 0.062850891 0.000663391
0.373829437 0.062891937 0.000704437
0.404964234 0.062932984 0.000745484
0.436099031 0.062974031 0.000786531
0.467233828 0.063015078 0.000827578
0.498368625 0.063056125 0.000868625
0.529503422 0.063097172 0.000909672
0.560638219 0.063138219 0.000950719
0.591773016 0.063179266 0.000991766
0.622907813 0.063220313 0.001032813
0.654042609 0.063261359 0.001073859
0.685177406 0.063302406 0.001114906
0.716312203 0.063343453 0.001155953
0.747447000 0.063384500 0.001197000
0.778581797 0.063425547 0.001238047
0.809716594 0.063466594 0.001279094
0.840851391 0.063507641 0.001320141
0.871986188 0.063548688 0.001361188
0.903120984 0.063589734 0.001402234
0.934255781 0.063630781 0.001443281
0.965390578 0.063671828 0.001484328
0.996525375 0.063712875 0.001525375
0.002679313 0.092477524 0.002679313
0.032958095 0.092823569 0.003025358
0.063179974 0.093214433 0.003111055
0.093713881 0.093713881 0.000572967
0.124857000 0.093763250 0.000482000
0.155991797 0.093804297 0.000523047
0.187126594 0.093845344 0.000564094
0.218261391 0.093886391 0.000605141
0.249396188 0.093927438 0.000646188
0.280530984 0.093968484 0.000687234
0.311665781 0.094009531 0.000728281
0.342800578 0.094050578 0.000769328
0.373935375 0.094091625 0.000810375
0.405070172 0.094132672 0.000851422
0.436204969 0.094173719 0.000892469
0.467339766 0.094214766 0.000933516
0.498474562 0.094255812 0.000974562
0.529609359 0.094296859 0.001015609
0.560744156 0.094337906 0.001056656
0.591878953 0.094378953 0.001097703
0.623013750 0.094420000 0.001138750
0.654148547 0.094461047 0.001179797
0.685283344 0.094502094 0.001220844
0.716418141 0.094543141 0.001261891
0.747552938 0.094584187 0.001302937
0.778687734 0.094625234 0.001343984
0.809822531 0.094666281 0.001385031
0.840957328 0.094707328 0.001426078
0.872092125 0.094748375 0.001467125
0.903226922 0.094789422 0.001508172
0.934361719 0.094830469 0.001549219
0.965496516 0.094871516 0.001590266
0.996631313 0.094912562 0.001631312
0.002722576 0.123706977 0.002722576
0.033232401 0.123970702 0.002986300
0.063742225 0.124234426 0.003250025
0.094006343 0.124743760 0.001794091
0.124962937 0.124962937 0.000587937
0.156097734 0.125003984 0.000628984
0.187232531 0.125045031 0.000670031
0.218367328 0.125086078 0.000711078
0.249502125 0.125127125 0.000752125
0.280636922 0.125168172 0.000793172
0.311771719 0.125209219 0.000834219
0.342906516 0.125250266 0.000875266
0.374041313 0.125291313 0.000916312
0.405176109 0.125332359 0.000957359
0.436310906 0.125373406 0.000998406
0.467445703 0.125414453 0.001039453
0.498580500 0.125455500 0.001080500
0.529715297 0.125496547 0.001121547
0.560850094 0.125537594 0.001162594
0.591984891 0.125578641 0.001203641
0.623119688 0.125619687 0.001244688
0.654254484 0.125660734 0.001285734
0.685389281 0.125701781 0.001326781
0.716524078 0.125742828 0.001367828
0.747658875 0.125783875 0.001408875
0.778793672 0.125824922 0.001449922
0.809928469 0.125865969 0.001490969
0.841063266 0.125907016 0.001532016
0.872198063 0.125948063 0.001573062
0.903332859 0.125989109 0.001614109
0.934467656 0.126030156 0.001655156
0.965602453 0.126071203 0.001696203
0.996737250 0.126112250 0.001737250
0.001840737 0.155375786 0.001840737
0.032690390 0.155518429 0.001983380
0.063540043 0.155661073 0.002126024
0.094365200 0.155820806 0.002181792
0.125068875 0.156162625 0.000693875
0.156203672 0.156203672 0.000734922
0.187338469 0.156244719 0.000775969
0.218473266 0.156285766 0.000817016
0.249608063 0.156326812 0.000858063
0.280742859 0.156367859 0.000899109
0.311877656 0.156408906 0.000940156
0.343012453 0.156449953 0.000981203
0.374147250 0.156491000 0.001022250
0.405282047 0.156532047 0.001063297
0.436416844 0.156573094 0.001104344
0.467551641 0.156614141 0.001145391
0.498686438 0.156655188 0.001186437
0.529821234 0.156696234 0.001227484
0.560956031 0.156737281 0.001268531
0.592090828 0.156778328 0.001309578
0.623225625 0.156819375 0.001350625
0.654360422 0.156860422 0.001391672
0.685495219 0.156901469 0.001432719
0.716630016 0.156942516 0.001473766
0.747764813 0.156983563 0.001514813
0.778899609 0.157024609 0.001555859
0.810034406 0.157065656 0.001596906
0.841169203 0.157106703 0.001637953
0.872304000 0.157147750 0.001679000
0.903438797 0.157188797 0.001720047
0.934573594 0.157229844 0.001761094
0.965708391 0.157270891 0.001802141
0.996843188 0.157311937 0.001843188
0.000635625 0.187198125 0.000635625
0.031770422 0.187239172 0.000676672
0.062905219 0.187280219 0.000717719
0.094040016 0.187321266 0.000758766
0.125174813 0.187362312 0.000799812
0.156309609 0.187403359 0.000840859
0.187444406 0.187444406 0.000881906
0.218579203 0.187485453 0.000922953
0.249714000 0.187526500 0.000964000
0.280848797 0.187567547 0.001005047
0.311983594 0.187608594 0.001046094
0.343118391 0.187649641 0.001087141
0.374253188 0.187690688 0.001128187
0.405387984 0.187731734 0.001169234
0.436522781 0.187772781 0.001210281
0.467657578 0.187813828 0.001251328
0.498792375 0.187854875 0.001292375
0.529927172 0.187895922 0.001333422
0.561061969 0.187936969 0.001374469
0.592196766 0.187978016 0.001415516
0.623331562 0.188019063 0.001456562
0.654466359 0.188060109 0.001497609
0.685601156 0.188101156 0.001538656
0.716735953 0.188142203 0.001579703
0.747870750 0.188183250 0.001620750
0.779005547 0.188224297 0.001661797
0.810140344 0.188265344 0.001702844
0.841275141 0.188306391 0.001743891
0.872409937 0.188347437 0.001784938
0.903544734 0.188388484 0.001825984
0.934679531 0.188429531 0.001867031
0.965814328 0.188470578 0.001908078
0.996949125 0.188511625 0.001949125
0.000741562 0.218397813 0.000741562
0.031876359 0.218438859 0.000782609
0.063011156 0.218479906 0.000823656
0.094145953 0.218520953 0.000864703
0.125280750 0.218562000 0.000905750
0.156415547 0.218603047 0.000946797
0.187550344 0.218644094 0.000987844
0.218685141 0.218685141 0.001028891
0.249819938 0.218726188 0.001069938
0.280954734 0.218767234 0.001110984
0.312089531 0.218808281 0.001152031
0.343224328 0.218849328 0.001193078
0.374359125 0.218890375 0.001234125
0.405493922 0.218931422 0.001275172
0.436628719 0.218972469 0.001316219
0.467763516 0.219013516 0.001357266
0.498898312 0.219054562 0.001398312
0.530033109 0.219095609 0.001439359
0.561167906 0.219136656 0.001480406
0.592302703 0.219177703 0.001521453
0.623437500 0.219218750 0.001562500
0.654572297 0.219259797 0.001603547
0.685707094 0.219300844 0.001644594
0.716841891 0.219341891 0.001685641
0.747976688 0.219382938 0.001726687
0.779111484 0.219423984 0.001767734
0.810246281 0.219465031 0.001808781
0.841381078 0.219506078 0.001849828
0.872515875 0.219547125 0.001890875
0.903650672 0.219588172 0.001931922
0.934785469 0.219629219 0.001972969
0.965920266 0.219670266 0.002014016
0.997055062 0.219711313 0.002055062
0.000847500 0.249597500 0.000847500
0.031982297 0.249638547 0.000888547
0.063117094 0.249679594 0.000929594
0.094251891 0.249720641 0.000970641
0.125386687 0.249761687 0.001011687
0.156521484 0.249802734 0.001052734
0.187656281 0.249843781 0.001093781
0.218791078 0.249884828 0.001134828
0.249925875 0.249925875 0.001175875
0.281060672 0.249966922 0.001216922
0.312195469 0.250007969 0.001257969
0.343330266 0.250049016 0.001299016
0.374465063 0.250090062 0.001340063
0.405599859 0.250131109 0.001381109
0.436734656 0.250172156 0.001422156
0.467869453 0.250213203 0.001463203
0.499004250 0.250254250 0.001504250
0.530139047 0.250295297 0.001545297
0.561273844 0.250336344 0.001586344
0.592408641 0.250377391 0.001627391
0.623543437 0.250418438 0.001668438
0.654678234 0.250459484 0.001709484
0.685813031 0.250500531 0.001750531
0.716947828 0.250541578 0.001791578
0.748082625 0.250582625 0.001832625
0.779217422 0.250623672 0.001873672
0.810352219 0.250664719 0.001914719
0.841487016 0.250705766 0.001955766
0.872621813 0.250746812 0.001996813
0.903756609 0.250787859 0.002037859
0.934891406 0.250828906 0.002078906
0.966026203 0.250869953 0.002119953
0.997161000 0.250911000 0.002161000
0.000953437 0.280797187 0.000953437
0.032088234 0.280838234 0.000994484
0.063223031 0.280879281 0.001035531
0.094357828 0.280920328 0.001076578
0.125492625 0.280961375 0.001117625
0.156627422 0.281002422 0.001158672
0.187762219 0.281043469 0.001199719
0.218897016 0.281084516 0.001240766
0.250031813 0.281125562 0.001281812
0.281166609 0.281166609 0.001322859
0.312301406 0.281207656 0.001363906
0.343436203 0.281248703 0.001404953
0.374571000 0.281289750 0.001446000
0.405705797 0.281330797 0.001487047
0.436840594 0.281371844 0.001528094
0.467975391 0.281412891 0.001569141
0.499110188 0.281453938 0.001610188
0.530244984 0.281494984 0.001651234
0.561379781 0.281536031 0.001692281
0.592514578 0.281577078 0.001733328
0.623649375 0.281618125 0.001774375
0.654784172 0.281659172 0.001815422
0.685918969 0.281700219 0.001856469
0.717053766 0.281741266 0.001897516
0.748188562 0.281782313 0.001938563
0.779323359 0.281823359 0.001979609
0.810458156 0.281864406 0.002020656
0.841592953 0.281905453 0.002061703
0.872727750 0.281946500 0.002102750
0.903862547 0.281987547 0.002143797
0.934997344 0.282028594 0.002184844
0.966132141 0.282069641 0.002225891
0.997266937 0.282110688 0.002266938
0.001059375 0.311996875 0.001059375
0.032194172 0.312037922 0.001100422
0.063328969 0.312078969 0.001141469
0.094463766 0.312120016 0.001182516
0.125598563 0.312161062 0.001223562
0.156733359 0.312202109 0.001264609
0.187868156 0.312243156 0.001305656
0.219002953 0.312284203 0.001346703
0.250137750 0.312325250 0.001387750
0.281272547 0.312366297 0.001428797
0.312407344 0.312407344 0.001469844
0.343542141 0.312448391 0.001510891
0.374676937 0.312489438 0.001551937
0.405811734 0.312530484 0.001592984
0.436946531 0.312571531 0.001634031
0.468081328 0.312612578 0.001675078
0.499216125 0.312653625 0.001716125
0.530350922 0.312694672 0.001757172
0.561485719 0.312735719 0.001798219
0.592620516 0.312776766 0.001839266
0.623755312 0.312817813 0.001880312
0.654890109 0.312858859 0.001921359
0.686024906 0.312899906 0.001962406
0.717159703 0.312940953 0.002003453
0.748294500 0.312982000 0.002044500
0.779429297 0.313023047 0.002085547
0.810564094 0.313064094 0.002126594
0.841698891 0.313105141 0.002167641
0.872833688 0.313146188 0.002208688
0.903968484 0.313187234 0.002249734
0.935103281 0.313228281 0.002290781
0.966238078 0.313269328 0.002331828
0.997372875 0.313310375 0.002372875
0.001165312 0.343196562 0.001165312
0.032300109 0.343237609 0.001206359
0.063434906 0.343278656 0.001247406
0.094569703 0.343319703 0.001288453
0.125704500 0.343360750 0.001329500
0.156839297 0.343401797 0.001370547
0.187974094 0.343442844 0.001411594
0.219108891 0.343483891 0.001452641
0.250243687 0.343524938 0.001493688
0.281378484 0.343565984 0.001534734
0.312513281 0.343607031 0.001575781
0.343648078 0.343648078 0.001616828
0.374782875 0.343689125 0.001657875
0.405917672 0.343730172 0.001698922
0.437052469 0.343771219 0.001739969
0.468187266 0.343812266 0.001781016
0.499322062 0.343853313 0.001822062
0.530456859 0.343894359 0.001863109
0.561591656 0.343935406 0.001904156
0.592726453 0.343976453 0.001945203
0.623861250 0.344017500 0.001986250
0.654996047 0.344058547 0.002027297
0.686130844 0.344099594 0.002068344
0.717265641 0.344140641 0.002109391
0.748400437 0.344181687 0.002150437
0.779535234 0.344222734 0.002191484
0.810670031 0.344263781 0.002232531
0.841804828 0.344304828 0.002273578
0.872939625 0.344345875 0.002314625
0.904074422 0.344386922 0.002355672
0.935209219 0.344427969 0.002396719
0.966344016 0.344469016 0.002437766
0.997478813 0.344510062 0.002478812
0.001271250 0.374396250 0.001271250
0.032406047 0.374437297 0.001312297
0.063540844 0.374478344 0.001353344
0.094675641 0.374519391 0.001394391
0.125810438 0.374560438 0.001435438
0.156945234 0.374601484 0.001476484
0.188080031 0.374642531 0.001517531
0.219214828 0.374683578 0.001558578
0.250349625 0.374724625 0.001599625
0.281484422 0.374765672 0.001640672
0.312619219 0.374806719 0.001681719
0.343754016 0.374847766 0.001722766
0.374888813 0.374888813 0.001763813
0.406023609 0.374929859 0.001804859
0.437158406 0.374970906 0.001845906
0.468293203 0.375011953 0.001886953
0.499428000 0.375053000 0.001928000
0.530562797 0.375094047 0.001969047
0.561697594 0.375135094 0.002010094
0.592832391 0.375176141 0.002051141
0.623967188 0.375217187 0.002092188
0.655101984 0.375258234 0.002133234
0.686236781 0.375299281 0.002174281
0.717371578 0.375340328 0.002215328
0.748506375 0.375381375 0.002256375
0.779641172 0.375422422 0.002297422
0.810775969 0.375463469 0.002338469
0.841910766 0.375504516 0.002379516
0.873045562 0.375545562 0.002420563
0.904180359 0.375586609 0.002461609
0.935315156 0.375627656 0.002502656
0.966449953 0.375668703 0.002543703
0.997584750 0.375709750 0.002584750
0.001377187 0.405595938 0.001377187
0.032511984 0.405636984 0.001418234
0.063646781 0.405678031 0.001459281
0.094781578 0.405719078 0.001500328
0.125916375 0.405760125 0.001541375
0.157051172 0.405801172 0.001582422
0.188185969 0.405842219 0.001623469
0.219320766 0.405883266 0.001664516
0.250455563 0.405924312 0.001705562
0.281590359 0.405965359 0.001746609
0.312725156 0.406006406 0.001787656
0.343859953 0.406047453 0.001828703
0.374994750 0.406088500 0.001869750
0.406129547 0.406129547 0.001910797
0.437264344 0.406170594 0.001951844
0.468399141 0.406211641 0.001992891
0.499533937 0.406252687 0.002033938
0.530668734 0.406293734 0.002074984
0.561803531 0.406334781 0.002116031
0.592938328 0.406375828 0.002157078
0.624073125 0.406416875 0.002198125
0.655207922 0.406457922 0.002239172
0.686342719 0.406498969 0.002280219
0.717477516 0.406540016 0.002321266
0.748612312 0.406581063 0.002362313
0.779747109 0.406622109 0.002403359
0.810881906 0.406663156 0.002444406
0.842016703 0.406704203 0.002485453
0.873151500 0.406745250 0.002526500
0.904286297 0.406786297 0.002567547
0.935421094 0.406827344 0.002608594
0.966555891 0.406868391 0.002649641
0.997690688 0.406909437 0.002690688
0.001483125 0.436795625 0.001483125
0.032617922 0.436836672 0.001524172
0.063752719 0.436877719 0.001565219
0.094887516 0.436918766 0.001606266
0.126022313 0.436959812 0.001647312
0.157157109 0.437000859 0.001688359
0.188291906 0.437041906 0.001729406
0.219426703 0.437082953 0.001770453
0.250561500 0.437124000 0.001811500
0.281696297 0.437165047 0.001852547
0.312831094 0.437206094 0.001893594
0.343965891 0.437247141 0.001934641
0.375100688 0.437288187 0.001975687
0.406235484 0.437329234 0.002016734
0.437370281 0.437370281 0.002057781
0.468505078 0.437411328 0.002098828
0.499639875 0.437452375 0.002139875
0.530774672 0.437493422 0.002180922
0.561909469 0.437534469 0.002221969
0.593044266 0.437575516 0.002263016
0.624179062 0.437616563 0.002304062
0.655313859 0.437657609 0.002345109
0.686448656 0.437698656 0.002386156
0.717583453 0.437739703 0.002427203
0.748718250 0.437780750 0.002468250
0.779853047 0.437821797 0.002509297
0.810987844 0.437862844 0.002550344
0.842122641 0.437903891 0.002591391
0.873257437 0.437944938 0.002632437
0.904392234 0.437985984 0.002673484
0.935527031 0.438027031 0.002714531
0.966661828 0.438068078 0.002755578
0.997796625 0.438109125 0.002796625
0.001589063 0.467995313 0.001589063
0.032723859 0.468036359 0.001630109
0.063858656 0.468077406 0.001671156
0.094993453 0.468118453 0.001712203
0.126128250 0.468159500 0.001753250
0.157263047 0.468200547 0.001794297
0.188397844 0.468241594 0.001835344
0.219532641 0.468282641 0.001876391
0.250667437 0.468323687 0.001917438
0.281802234 0.468364734 0.001958484
0.312937031 0.468405781 0.001999531
0.344071828 0.468446828 0.002040578
0.375206625 0.468487875 0.002081625
0.406341422 0.468528922 0.002122672
0.437476219 0.468569969 0.002163719
0.468611016 0.468611016 0.002204766
0.499745812 0.468652063 0.002245812
0.530880609 0.468693109 0.002286859
0.562015406 0.468734156 0.002327906
0.593150203 0.468775203 0.002368953
0.624285000 0.468816250 0.002410000
0.655419797 0.468857297 0.002451047
0.686554594 0.468898344 0.002492094
0.717689391 0.468939391 0.002533141
0.748824188 0.468980438 0.002574188
0.779958984 0.469021484 0.002615234
0.811093781 0.469062531 0.002656281
0.842228578 0.469103578 0.002697328
0.873363375 0.469144625 0.002738375
0.904498172 0.469185672 0.002779422
0.935632969 0.469226719 0.002820469
0.966767766 0.469267766 0.002861516
0.997902562 0.469308813 0.002902562
0.001695000 0.499195000 0.001695000
0.032829797 0.499236047 0.001736047
0.063964594 0.499277094 0.001777094
0.095099391 0.499318141 0.001818141
0.126234188 0.499359187 0.001859188
0.157368984 0.499400234 0.001900234
0.188503781 0.499441281 0.001941281
0.219638578 0.499482328 0.001982328
0.250773375 0.499523375 0.002023375
0.281908172 0.499564422 0.002064422
0.313042969 0.499605469 0.002105469
0.344177766 0.499646516 0.002146516
0.375312563 0.499687563 0.002187563
0.406447359 0.499728609 0.002228609
0.437582156 0.499769656 0.002269656
0.468716953 0.499810703 0.002310703
0.499851750 0.499851750 0.002351750
0.530986547 0.499892797 0.002392797
0.562121344 0.499933844 0.002433844
0.593256141 0.499974891 0.002474891
0.624390937 0.500015937 0.002515938
0.655525734 0.500056984 0.002556984
0.686660531 0.500098031 0.002598031
0.717795328 0.500139078 0.002639078
0.748930125 0.500180125 0.002680125
0.780064922 0.500221172 0.002721172
0.811199719 0.500262219 0.002762219
0.842334516 0.500303266 0.002803266
0.873469312 0.500344312 0.002844313
0.904604109 0.500385359 0.002885359
0.935738906 0.500426406 0.002926406
0.966873703 0.500467453 0.002967453
0.998008500 0.500508500 0.003008500
0.001800937 0.530394687 0.001800937
0.032935734 0.530435734 0.001841984
0.064070531 0.530476781 0.001883031
0.095205328 0.530517828 0.001924078
0.126340125 0.530558875 0.001965125
0.157474922 0.530599922 0.002006172
0.188609719 0.530640969 0.002047219
0.219744516 0.530682016 0.002088266
0.250879313 0.530723063 0.002129312
0.282014109 0.530764109 0.002170359
0.313148906 0.530805156 0.002211406
0.344283703 0.530846203 0.002252453
0.375418500 0.530887250 0.002293500
0.406553297 0.530928297 0.002334547
0.437688094 0.530969344 0.002375594
0.468822891 0.531010391 0.002416641
0.499957688 0.531051437 0.002457688
0.531092484 0.531092484 0.002498734
0.562227281 0.531133531 0.002539781
0.593362078 0.531174578 0.002580828
0.624496875 0.531215625 0.002621875
0.655631672 0.531256672 0.002662922
0.686766469 0.531297719 0.002703969
0.717901266 0.531338766 0.002745016
0.749036062 0.531379812 0.002786063
0.780170859 0.531420859 0.002827109
0.811305656 0.531461906 0.002868156
0.842440453 0.531502953 0.002909203
0.873575250 0.531544000 0.002950250
0.904710047 0.531585047 0.002991297
0.935844844 0.531626094 0.003032344
0.966979641 0.531667141 0.003073391
0.998114437 0.531708188 0.003114437
0.001906875 0.561594375 0.001906875
0.033041672 0.561635422 0.001947922
0.064176469 0.561676469 0.001988969
0.095311266 0.561717516 0.002030016
0.126446063 0.561758563 0.002071062
0.157580859 0.561799609 0.002112109
0.188715656 0.561840656 0.002153156
0.219850453 0.561881703 0.002194203
0.250985250 0.561922750 0.002235250
0.282120047 0.561963797 0.002276297
0.313254844 0.562004844 0.002317344
0.344389641 0.562045891 0.002358391
0.375524437 0.562086937 0.002399437
0.406659234 0.562127984 0.002440484
0.437794031 0.562169031 0.002481531
0.468928828 0.562210078 0.002522578
0.500063625 0.562251125 0.002563625
0.531198422 0.562292172 0.002604672
0.562333219 0.562333219 0.002645719
0.593468016 0.562374266 0.002686766
0.624602813 0.562415312 0.002727812
0.655737609 0.562456359 0.002768859
0.686872406 0.562497406 0.002809906
0.718007203 0.562538453 0.002850953
0.749142000 0.562579500 0.002892000
0.780276797 0.562620547 0.002933047
0.811411594 0.562661594 0.002974094
0.842546391 0.562702641 0.003015141
0.873681188 0.562743688 0.003056188
0.904815984 0.562784734 0.003097234
0.935950781 0.562825781 0.003138281
0.967085578 0.562866828 0.003179328
0.998220375 0.562907875 0.003220375
0.002012813 0.592794062 0.002012813
0.033147609 0.592835109 0.002053859
0.064282406 0.592876156 0.002094906
0.095417203 0.592917203 0.002135953
0.126552000 0.592958250 0.002177000
0.157686797 0.592999297 0.002218047
0.188821594 0.593040344 0.002259094
0.219956391 0.593081391 0.002300141
0.251091188 0.593122438 0.002341188
0.282225984 0.593163484 0.002382234
0.313360781 0.593204531 0.002423281
0.344495578 0.593245578 0.002464328
0.375630375 0.593286625 0.002505375
0.406765172 0.593327672 0.002546422
0.437899969 0.593368719 0.002587469
0.469034766 0.593409766 0.002628516
0.500169562 0.593450812 0.002669563
0.531304359 0.593491859 0.002710609
0.562439156 0.593532906 0.002751656
0.593573953 0.593573953 0.002792703
0.624708750 0.593615000 0.002833750
0.655843547 0.593656047 0.002874797
0.686978344 0.593697094 0.002915844
0.718113141 0.593738141 0.002956891
0.749247937 0.593779188 0.002997937
0.780382734 0.593820234 0.003038984
0.811517531 0.593861281 0.003080031
0.842652328 0.593902328 0.003121078
0.873787125 0.593943375 0.003162125
0.904921922 0.593984422 0.003203172
0.936056719 0.594025469 0.003244219
0.967191516 0.594066516 0.003285266
0.998326312 0.594107562 0.003326313
0.002118750 0.623993750 0.002118750
0.033253547 0.624034797 0.002159797
0.064388344 0.624075844 0.002200844
